flaticon/interaction/archive-10.svg

<svg xmlns="http://www.w3.org/2000/svg" width="32" height="32" viewBox="0 0 24 24">
    <path d="M23.296875 19.859375C21.890625 17.710938 20.011719 16.5 17.992188 16.421875 17.886719 16.410156 17.777344 16.398438 17.667969 16.398438 17.472656 16.398438 17.28125 16.421875 17.097656 16.460938 15.257812 16.695312 13.5625 17.878906 12.269531 19.855469L12.082031 20.140625 12.226562 20.359375C13.679688 22.582031 15.636719 23.804688 17.738281 23.804688 19.839844 23.804688 21.796875 22.582031 23.253906 20.359375L23.4375 20.078125zM19.628906 19.164062C19.628906 20.246094 18.75 21.128906 17.667969 21.128906 16.582031 21.128906 15.703125 20.246094 15.703125 19.164062 15.703125 18.226562 16.363281 17.441406 17.246094 17.246094 17.421875 17.226562 17.601562 17.214844 17.78125 17.214844 17.789062 17.214844 17.796875 17.214844 17.804688 17.214844 18.824219 17.289062 19.628906 18.128906 19.628906 19.164062zM17.738281 23.003906C15.984375 23.003906 14.324219 21.988281 13.042969 20.140625 13.664062 19.226562 14.382812 18.511719 15.15625 18.019531 14.996094 18.367188 14.902344 18.753906 14.902344 19.164062 14.902344 20.6875 16.144531 21.925781 17.667969 21.925781 19.191406 21.925781 20.429688 20.6875 20.429688 19.164062 20.429688 18.675781 20.304688 18.222656 20.082031 17.824219 20.964844 18.304688 21.777344 19.066406 22.480469 20.078125 21.191406 21.96875 19.515625 23.003906 17.738281 23.003906zM9.164062 7.199219L13.558594 7.199219C14.332031 7.199219 14.960938 6.570312 14.960938 5.796875L14.960938 5.199219C14.960938 4.980469 14.78125 4.800781 14.5625 4.800781 14.339844 4.800781 14.160156 4.980469 14.160156 5.199219L14.160156 5.796875C14.160156 6.128906 13.890625 6.398438 13.558594 6.398438L9.164062 6.398438C8.832031 6.398438 8.5625 6.128906 8.5625 5.796875L8.5625 5.199219C8.5625 4.980469 8.382812 4.800781 8.160156 4.800781 7.941406 4.800781 7.761719 4.980469 7.761719 5.199219L7.761719 5.796875C7.761719 6.570312 8.390625 7.199219 9.164062 7.199219zM8.160156 16.398438C7.941406 16.398438 7.761719 16.578125 7.761719 16.800781L7.761719 17.398438C7.761719 18.171875 8.390625 18.800781 9.164062 18.800781L12.160156 18.800781C12.382812 18.800781 12.5625 18.621094 12.5625 18.398438 12.5625 18.179688 12.382812 18 12.160156 18L9.164062 18C8.832031 18 8.5625 17.730469 8.5625 17.398438L8.5625 16.800781C8.5625 16.578125 8.382812 16.398438 8.160156 16.398438zM8.160156 16.398438"/>
    <path d="M 9.761719 23.199219 L 1.695312 23.199219 C 1.511719 23.199219 1.359375 23.050781 1.359375 22.867188 L 1.359375 12.398438 L 21.359375 12.398438 L 21.359375 15.230469 C 21.359375 15.449219 21.539062 15.628906 21.761719 15.628906 C 21.980469 15.628906 22.160156 15.449219 22.160156 15.230469 L 22.160156 1.132812 C 22.160156 0.507812 21.652344 0 21.027344 0 L 1.695312 0 C 1.070312 0 0.5625 0.507812 0.5625 1.132812 L 0.5625 22.867188 C 0.5625 23.492188 1.070312 24 1.695312 24 L 9.761719 24 C 9.980469 24 10.160156 23.820312 10.160156 23.601562 C 10.160156 23.378906 9.980469 23.199219 9.761719 23.199219 Z M 1.695312 0.800781 L 21.027344 0.800781 C 21.210938 0.800781 21.359375 0.949219 21.359375 1.132812 L 21.359375 11.601562 L 1.359375 11.601562 L 1.359375 1.132812 C 1.359375 0.949219 1.511719 0.800781 1.695312 0.800781 Z M 1.695312 0.800781"/>
</svg>

<svg xmlns="http://www.w3.org/2000/svg" width="32" height="32" viewBox="0 0 24 24">
    <path d="M23.297 19.86c-1.406-2.15-3.285-3.36-5.305-3.438a2.945 2.945 0 0 0-.324-.024c-.195 0-.387.024-.57.063-1.84.234-3.535 1.418-4.828 3.394l-.188.286.145.218c1.453 2.223 3.41 3.446 5.511 3.446 2.102 0 4.059-1.223 5.516-3.446l.183-.28zm-3.668-.696a1.966 1.966 0 0 1-1.961 1.965 1.966 1.966 0 0 1-1.965-1.965c0-.937.66-1.723 1.543-1.918a4.86 4.86 0 0 1 .535-.031h.024a1.958 1.958 0 0 1 1.824 1.95zm-1.89 3.84c-1.755 0-3.415-1.016-4.696-2.863.621-.914 1.34-1.63 2.113-2.121-.16.347-.254.734-.254 1.144a2.764 2.764 0 1 0 5.18-1.34c.883.48 1.695 1.242 2.398 2.254-1.289 1.89-2.964 2.926-4.742 2.926zm0 0M9.164 7.2h4.395c.773 0 1.402-.63 1.402-1.403v-.598a.4.4 0 0 0-.8 0v.598c0 .332-.27.601-.602.601H9.164a.602.602 0 0 1-.601-.601v-.598a.401.401 0 0 0-.801 0v.598c0 .773.629 1.402 1.402 1.402zm0 0M8.16 16.398a.401.401 0 0 0-.398.403v.597c0 .774.629 1.403 1.402 1.403h2.996a.401.401 0 0 0 0-.8l-2.996-.001a.602.602 0 0 1-.601-.602v-.597a.402.402 0 0 0-.403-.403zm0 0"/>
    <path d="M9.762 23.2H1.695a.335.335 0 0 1-.336-.333V12.398h20v2.832a.401.401 0 0 0 .801 0V1.133C22.16.508 21.652 0 21.027 0H1.695C1.07 0 .562.508.562 1.133v21.734c0 .625.508 1.133 1.133 1.133h8.067a.4.4 0 0 0 0-.8zM1.695.8h19.332c.184 0 .332.15.332.333v10.469h-20V1.132c0-.183.153-.331.336-.331zm0 0"/>
</svg>
